X: 1
T: Paddy Faheys Reel No. 1
C: by Paddy Fahey
R: reel
S: Fiddle Hell Online 2022-3-26 handout for Fiddle Hell jam session
B: the Portland Collection 1 p.163
Z: 2022 John Chambers <jc:trillian.mit.edu>
M: C|
L: 1/8
K: Dm
|:\
"Dm"D2A,D FEFG | Ad^ce d2de | fedf "C"edcA | "Dm"d2AG "C"FDCA, ||\
"Dm"D2A,D FEFG | Ad^ce d4 | fedf "C"edcA | "Dm"d2AG FDD2 :|
|:\
"Dm"Ad (3.d.d.d adBd | "C"c2Gc EcGc | "Dm"Ad (3.d.d.d adBd | "C"cBcd edcA ||\
"Dm"a2ga ABcA | d2AG "C"FDCA, | "Dm"D2A,D FEFG | "C"Ad^ce "Dm"d4 :|
